X:1
T:Title
%%score { 1 | ( 2 3 ) }
L:1/8
M:6/8
K:F
V:1 treble nm="Grand Piano"
V:2 bass 
V:3 bass 
V:1
 z3 z2[Q:1/4=100] C | F2 F F2 A | [FA]2 G FFF | F2 F [EG]F[CEG] |[M:5/8] [CFA]-[CFA]- [CFA]3 | %5
[M:1/8] C |[M:3/4] F2 F F2 A | [FA]2 GF FF | [B,DG]2 [DB][CA] FG |[M:5/8] F-F- F3 |[M:1/8] A | %11
[M:3/4] c2 A F2 F | F2 [EG]A AA | [DB]2 D D2 D | [A,C]4- [A,C]A | c2 A A2 A | %16
 [FB]2 [Fc][Fd] [Fd][Fd] | %17
 [Fc]2 [FA][FA] FG[Q:1/4=99][Q:1/4=97][Q:1/4=96][Q:1/4=94][Q:1/4=93][Q:1/4=91][Q:1/4=90] | %18
[M:5/8] F-F- F3[Q:1/4=88][Q:1/4=87][Q:1/4=85][Q:1/4=84][Q:1/4=82][Q:1/4=81][Q:1/4=79][Q:1/4=78][Q:1/4=76] |] %19
V:2
 z3 z2 C, | [F,A,C]2 [F,A,C] [F,A,C]2 [F,CF] | [C,C]2 [C,B,C] [F,A,C][F,A,C][F,A,C] | %3
 [D,A,D]2 [D,A,D] z DC, |[M:5/8] F,-F,- F,3 |[M:1/8] C, |[M:3/4] [F,A,C]2 [F,A,C] [F,A,C]2 [F,CF] | %7
 [C,C]2 [C,B,C][F,A,C] [F,A,C][F,A,C] | B,,2 .G,,2 A,[C,B,C] |[M:5/8] [F,A,C]-[F,A,C]- [F,A,C]3 | %10
[M:1/8] [F,CF] |[M:3/4] [F,A,F]2 [F,F] [F,A,]2 [D,A,] | [D,A,]2 [C,C][F,CF] [F,CF][F,CF] | %13
 [B,,B,]2 [B,,F,B,] [B,,F,B,]2 [B,,F,B,] | [F,,F,]4- [F,,F,][F,CF] | %15
 [F,A,F]2 [F,CF] [F,CF]2 [F,CF] | [D,B,]2 [C,A,][B,,B,] [B,,B,][B,,B,] | %17
 [C,A,]2 [C,C]C [A,C][C,B,C] |[M:5/8] [F,A,C]-[F,A,C]- [F,A,C]3 |] %19
V:3
 x6 | x6 | x6 | z3 .[C,C]3 |[M:5/8] x5 |[M:1/8] x |[M:3/4] x6 | x6 | z2 z .C,3 |[M:5/8] x5 | %10
[M:1/8] x |[M:3/4] x6 | x6 | x6 | x6 | x6 | x6 | z2 z .C,3 |[M:5/8] x5 |] %19

